brandFactory_export/3.Masa/Descargar_Descarga app_3Masa.svg

<?xml version="1.0" encoding="UTF-8"?>
<svg width="24px" height="24px" viewBox="0 0 24 24" version="1.1" xmlns="http://www.w3.org/2000/svg" xmlns:xlink="http://www.w3.org/1999/xlink">
    <title>3.Masa/Descargar_Descarga app_3Masa</title>
    <g id="Symbols" stroke="none" stroke-width="1" fill="none" fill-rule="evenodd">
        <g id="3.Masa/Descargar_Descarga-app_3Masa" fill="#5CB615" fill-rule="nonzero">
            <path d="M18.8336134,0.998319328 C18.1815126,0.32605042 17.2201681,0 15.8890756,0 L7.92268908,0 C5.33445378,0 4.02352941,1.32773109 4.02352941,3.94957983 L4.02352941,19.6739496 C4.02352941,22.3327731 5.29747899,23.6235294 7.92268908,23.6235294 L15.8890756,23.6235294 C18.5142857,23.6235294 19.7882353,22.3327731 19.7882353,19.6739496 L19.7882353,3.94957983 C19.7882353,2.62184874 19.4756303,1.65714286 18.8336134,0.998319328 L18.8336134,0.998319328 Z M12.897479,20.4638655 C12.6621849,20.702521 12.3226891,20.8302521 11.912605,20.8302521 C11.502521,20.8302521 11.1596639,20.702521 10.9277311,20.4638655 C10.6957983,20.2252101 10.5815126,19.8991597 10.5815126,19.492437 C10.5815126,18.6554622 11.0789916,18.1546218 11.9159664,18.1546218 C12.7529412,18.1546218 13.2470588,18.6554622 13.2470588,19.492437 C13.2436975,19.8991597 13.1260504,20.2252101 12.897479,20.4638655 Z M16.3294118,11.9159664 L12.3596639,16.487395 C12.2453782,16.6184874 12.0806723,16.6957983 11.9058824,16.6957983 C11.7310924,16.6957983 11.5663866,16.6184874 11.4521008,16.487395 L7.49243697,11.9159664 C7.27394958,11.6638655 7.30084034,11.2840336 7.55294118,11.0689076 C7.66386555,10.9747899 7.80168067,10.9210084 7.94621849,10.9210084 L9.67058824,10.9210084 L9.67058824,5.01512605 C9.6605042,4.74285714 9.76134454,4.47394958 9.94957983,4.27563025 C10.1781513,4.0302521 10.5042017,3.90252101 10.8403361,3.92941176 L13.0420168,3.92941176 C13.6201681,3.92941176 14.087395,4.39327731 14.0907563,4.97142857 C14.0907563,5.00840336 14.0907563,5.04201681 14.0840336,5.0789916 L14.0840336,10.9210084 L15.8722689,10.9210084 C16.205042,10.9210084 16.4739496,11.189916 16.4739496,11.5193277 C16.4773109,11.6672269 16.4235294,11.805042 16.3294118,11.9159664 Z" id="Descargar_Descarga-app_3Masa"></path>
        </g>
    </g>
</svg>

<svg width="24" height="24" viewBox="0 0 24 24" xmlns="http://www.w3.org/2000/svg"><path d="M18.834.998C18.182.326 17.22 0 15.889 0H7.923c-2.589 0-3.9 1.328-3.9 3.95v15.724c0 2.659 1.274 3.95 3.9 3.95h7.966c2.625 0 3.9-1.291 3.9-3.95V3.95c0-1.328-.313-2.293-.955-2.952zm-5.937 19.466c-.235.239-.574.366-.984.366-.41 0-.753-.127-.985-.366-.232-.239-.346-.565-.346-.972 0-.837.497-1.337 1.334-1.337.837 0 1.331.5 1.331 1.337-.003.407-.12.733-.35.972zm3.432-8.548l-3.97 4.571a.603.603 0 01-.453.209.603.603 0 01-.454-.209l-3.96-4.571a.598.598 0 01.06-.847.608.608 0 01.394-.148h1.725V5.015c-.01-.272.09-.541.279-.74.228-.245.554-.372.89-.346h2.202c.578 0 1.045.464 1.049 1.042 0 .037 0 .071-.007.108v5.842h1.788a.6.6 0 01.602.598.59.59 0 01-.145.397z" fill="#5CB615" fill-rule="nonzero"/></svg>
